src/assets/Github.svg

<svg xmlns="http://www.w3.org/2000/svg" viewBox="0 -0.5 30 30" shape-rendering="crispEdges">
  <path stroke="#525252" d="M2 0h1m1 0h24M1 1h1m26 0h1M6 2h3m3 0h3m3 0h2m1 0h1m7 0h1m-4 1h1m2 0h1M2 4h1m26 0h1m-3 1h1m1 0h1m-3 1h1m1 0h1m-3 1h1m1 0h1m-3 1h1m1 0h1m-3 1h1m1 0h1m-3 1h1m1 0h1m-3 1h1m1 0h1m-3 1h1m1 0h1m-3 1h1m1 0h1M2 14h1m24 0h1m1 0h1m-3 1h1m1 0h1M2 16h1m24 0h1m1 0h1M2 17h1m24 0h1m1 0h1M2 18h1m24 0h1m1 0h1m-3 1h1m1 0h1m-3 1h1m1 0h1m-3 1h1m1 0h1m-3 1h1m1 0h1M2 23h1m24 0h1m1 0h1m-3 1h1m1 0h1m-1 1h1M3 26h1m22 0h1m2 0h1M5 27h6m7 0h3"/>
  <path stroke="#383838" d="M3 0h1M0 2h1m8 0h3m8 0h1m2 0h2M0 3h1M0 4h1M0 5h1M0 6h1M0 7h1M0 8h1M0 9h1m-1 1h1m-1 1h1m-1 1h1m-1 1h1m-1 1h1m-1 1h1m-1 1h1m-1 1h1m-1 1h1m-1 1h1m-1 1h1m-1 1h1m-1 1h1m-1 1h1m-1 1h1m-1 1h1m1 0h1m-3 1h1m-1 1h1m24 0h1m3 0h1M1 28h1m26 0h1M2 29h26"/>
  <path stroke="#a3a3a3" d="M2 1h1m24 0h1M3 2h1m22 0h1M2 3h1m24 0h1M1 17h1m-1 2h1m26 0h1M1 20h1m26 0h1M1 21h1m26 0h1m-1 1h1M1 24h1m26 0h1m-1 1h1M1 26h2m24 0h2M2 27h2m22 0h2M3 28h1m1 0h7m14 0h1"/>
  <path stroke="#ccc" d="M3 1h4m18 0h2M2 2h1m24 0h1M1 3h1m26 0h1M1 4h1m26 0h1M1 7h1M1 8h1M1 9h1m-1 2h1m-1 1h1m-1 1h1m26 0h1m-1 1h1M1 25h1m2 3h1m10 0h4m3 0h2"/>
  <path stroke="#e0e0e0" d="M7 1h5m1 0h1m9 0h2m3 4h1m-1 1h1m-1 4h1m-1 1h1m-1 1h1"/>
  <path stroke="#f5f5f5" d="M12 1h1m1 0h9M1 5h1M1 6h1m19 1h1m-1 1h1m-6 1h4m-1 1h2"/>
  <path stroke="#7a7a7a" d="M1 2h1m2 0h2m19 0h1m2 0h1M3 3h1m23 1h1M2 5h1M2 6h1M2 7h1M2 8h1"/>
  <path stroke="#666" d="M15 2h3m4 0h1M2 9h1m-1 1h1m-1 1h1m-1 1h1m-1 1h1m-1 2h1m-1 4h1m-1 1h1m-1 1h1m-1 1h1m-1 2h1m24 1h1M1 27h1m2 0h1m6 0h7m3 0h4m3 0h1M2 28h1m24 0h1"/>
    <!-- bakcground highlight -->
  <path stroke="#bfb5cf" d="M4 3h22M3 5h1m22 0h1m-1 1h1M3 25h1m22 0h1m-2 1h1"/>
    <!-- main bakcground medium -->
  <path stroke="#aa9cbf" d="M3 4h3m17 0h4M4 5h1m20 0h1M3 6h1M3 7h1m22 0h1M3 23h1m-1 1h1m22 0h1M4 25h1m20 0h1M4 26h2m17 0h2"/>

  <!--background shadow-->
  <!-- main bakcground -->
  <path stroke="#9584ae" d="M6 4h2m2 0h11M5 5h2m4 0h9m4 0h1M4 6h3m5 0h1m5 0h1m5 0h2M4 7h3m17 0h2M3 8h3m19 0h2M3 9h2m21 0h1M3 10h2m21 0h1M3 11h2m21 0h1M3 12h2m21 0h1M3 13h2m21 0h1M3 14h2m21 0h1M3 15h2m21 0h1M3 16h2m21 0h1M3 17h3m19 0h2M3 18h1m2 0h2m16 0h3M3 19h1m3 0h3m12 0h5M3 20h1m4 0h2m11 0h6M3 21h1m17 0h6M3 22h2m17 0h5M4 23h2m16 0h5M4 24h2m4 0h1m11 0h4M5 25h5m13 0h2M6 26h4m12 0h1"/>

  <path stroke="#000" d="M8 4h2m11 0h2M7 5h1m2 0h1m9 0h1m2 0h1M7 6h1m3 0h1m1 0h5m1 0h1m3 0h1M7 7h1m4 0h1m5 0h1m4 0h1M6 8h1m17 0h1M5 9h1m19 0h1M5 10h1m19 0h1M5 11h1m19 0h1M5 12h1m19 0h1M5 13h1m19 0h1M5 14h1m19 0h1M5 15h1m19 0h1M6 16h1m17 0h1M7 17h1m15 0h1M5 18h1m2 0h2m11 0h2M6 19h1m3 0h1m9 0h1M4 20h1m2 0h1m2 0h1m9 0h1M8 21h2m10 0h1M5 22h1m15 0h1M6 23h1m3 0h1m10 0h1M7 24h2m2 0h1m9 0h1m-12 1h1m11 0h1"/>
  <path stroke="#d9c6bf" d="M8 5h1m13 0h1m-1 1h1M10 7h1m5 0h2M9 8h1m1 0h2M8 9h2m13 0h1M7 10h2m14 0h1M7 11h2m14 0h1M7 12h2m14 0h1M8 13h1m14 0h1M8 14h2m13 0h1M9 15h2m11 0h1M9 16h3m9 0h1m-12 1h3m6 0h3m-11 1h3m4 0h3M5 19h1m7 0h1m4 0h1M6 20h1m5 0h2m4 0h1M6 21h1m5 0h2m4 0h1M7 22h7m4 0h2m-7 1h1m5 0h1m-7 1h7"/>
  <path stroke="#c3c5cc" d="M9 5h1m11 0h1M8 6h1m1 0h1m9 0h1M8 7h1m2 0h1m1 0h3m3 0h1m2 0h1M8 8h1m14 0h1M7 9h1m-2 3h1m17 0h1M7 13h1m-1 2h2m14 0h1M8 16h1m13 0h1M9 17h1m0 1h1m1 1h1m-8 2h1m4 0h2m7 0h1m-8 2h1m3 2h3"/>
  <path stroke="#e7e5da" d="M9 6h1m11 0h1M9 7h1m10 0h1M10 8h1m2 0h8m1 0h1M10 9h5m7 0h1M9 10h5m8 0h1M9 11h2m11 0h1M9 12h3m10 0h1M9 13h3m10 0h1m-13 1h3m8 0h2m-12 1h3m6 0h2m-10 1h3m4 0h2m-8 1h2m3 0h1m-5 1h1m2 0h1m-4 1h2m1 0h1m-4 1h2m1 0h1m-4 1h4m-4 1h4m-4 1h5"/>
  <path stroke="#fff" d="M28 7h1m-1 1h1m-1 1h1"/>
  <path stroke="#9c9fac" d="M7 8h1M6 9h1m-1 1h1m-1 4h1m17 0h1M6 15h1m17 0h1M8 17h1m13 0h1M4 19h1m6 0h1m7 0h1m-9 1h1m-3 3h1m1 0h1m8 1h1m-10 1h2m8 0h1"/>
  <path stroke="#f5ebdd" d="M15 9h1m4 0h2m-8 1h5m2 0h1m-11 1h11m-10 1h10m-10 1h10m-9 1h8m-7 1h6m-5 1h4m-4 1h3m-3 1h2m-1 1h1m-1 1h1"/>
  <path stroke="#b5b7c1" d="M24 9h1m-1 1h1M6 11h1m17 0h1M6 13h1m17 0h1M7 14h1m-1 2h1m15 0h1M4 18h1m0 2h1m1 1h1m-2 1h1m1 1h1m3 1h1m0 1h3m3 0h2"/>
  <path stroke="#b8b8b8" d="M1 10h1m-1 4h1m-1 1h1m26 0h1M1 16h1m26 0h1m-1 1h1M1 18h1m26 0h1M12 28h3m4 0h3m2 0h2"/>
  <!-- under icon shadow -->
  <path stroke="#6d627f" d="M5 16h1m19 0h1M6 17h1m17 0h1m-2 1h1m-3 1h1M4 21h1m1 3h1m2 0h1m0 2h12"/>
  <path stroke="#a8abb7" d="M19 20h1m0 2h1m-1 1h1"/>
  <path stroke="#8f8f8f" d="M1 22h1m-1 1h1m26 0h1"/>
  <path stroke="#a3a6b2" d="M7 23h1"/>
</svg>

<svg xmlns="http://www.w3.org/2000/svg" viewBox="0 -0.5 30 30" shape-rendering="crispEdges">
<metadata>Made with Pixels to Svg https://codepen.io/shshaw/pen/XbxvNj</metadata>
<path stroke="#525252" d="M2 0h1M4 0h24M1 1h1M28 1h1M6 2h3M12 2h3M18 2h2M21 2h1M29 2h1M26 3h1M29 3h1M2 4h1M29 4h1M27 5h1M29 5h1M27 6h1M29 6h1M2 7h1M27 7h1M29 7h1M2 8h1M27 8h1M29 8h1M27 9h1M29 9h1M27 10h1M29 10h1M27 11h1M29 11h1M27 12h1M29 12h1M27 13h1M29 13h1M2 14h1M27 14h1M29 14h1M27 15h1M29 15h1M2 16h1M27 16h1M29 16h1M2 17h1M27 17h1M29 17h1M2 18h1M27 18h1M29 18h1M27 19h1M29 19h1M27 20h1M29 20h1M27 21h1M29 21h1M27 22h1M29 22h1M2 23h1M27 23h1M29 23h1M27 24h1M29 24h1M29 25h1M3 26h1M26 26h1M29 26h1M5 27h1M8 27h3M18 27h3" />
<path stroke="#383838" d="M3 0h1M0 2h1M9 2h3M20 2h1M23 2h2M0 3h1M0 4h1M0 5h1M0 6h1M0 7h1M0 8h1M0 9h1M0 10h1M0 11h1M0 12h1M0 13h1M0 14h1M0 15h1M0 16h1M0 17h1M0 18h1M0 19h1M0 20h1M0 21h1M0 22h1M0 23h1M0 24h1M0 25h1M2 25h1M0 26h1M0 27h1M25 27h1M29 27h1M1 28h1M28 28h1M2 29h26" />
<path stroke="#a3a3a3" d="M2 1h1M27 1h1M3 2h1M26 2h1M2 3h1M27 3h1M1 17h1M1 19h1M28 19h1M1 20h1M28 20h1M1 21h1M28 21h1M28 22h1M1 24h1M28 25h1M1 26h2M27 26h2M2 27h2M26 27h2M3 28h1M5 28h10M18 28h1M24 28h1M26 28h1" />
<path stroke="#cccccc" d="M3 1h4M25 1h2M2 2h1M27 2h1M1 3h1M28 3h1M1 4h1M28 4h1M1 7h1M1 8h1M1 9h1M1 11h1M1 12h1M1 13h1M28 13h1M28 14h1M28 24h1M1 25h1M4 28h1M15 28h3M22 28h2M25 28h1" />
<path stroke="#e0e0e0" d="M7 1h5M13 1h1M23 1h2M28 5h1M28 6h1M28 10h1M28 11h1M28 12h1" />
<path stroke="#f5f5f5" d="M12 1h1M14 1h9M1 5h1M1 6h1M21 7h1M21 8h1M16 9h4M19 10h2" />
<path stroke="#7a7a7a" d="M1 2h1M4 2h2M25 2h1M28 2h1M3 3h1M27 4h1M2 5h1M2 6h1" />
<path stroke="#666666" d="M15 2h3M22 2h1M2 9h1M2 10h1M2 11h1M2 12h1M2 13h1M2 15h1M2 19h1M2 20h1M2 21h1M2 22h1M2 24h1M27 25h1M1 27h1M4 27h1M6 27h2M11 27h7M21 27h4M28 27h1M2 28h1M27 28h1" />

<path stroke="#fbb7ae" d="M4 3h20M7 4h1M23 4h3M3 5h1M26 8h1M26 9h1M3 25h1M26 25h1M25 26h1" />
<path stroke="#eb9993" d="M24 3h2M3 4h4M26 4h1M4 5h1M24 5h3M3 6h1M26 6h1M3 7h1M24 7h1M25 8h1M3 23h1M3 24h1M26 24h1M4 25h1M25 25h1M4 26h2M23 26h2" />

<path stroke="#000000" d="M8 4h2M21 4h2M7 5h1M10 5h1M20 5h1M23 5h1M7 6h1M11 6h1M13 6h5M19 6h1M23 6h1M7 7h1M12 7h1M18 7h1M23 7h1M6 8h1M24 8h1M5 9h1M25 9h1M5 10h1M25 10h1M5 11h1M25 11h1M5 12h1M25 12h1M5 13h1M25 13h1M5 14h1M25 14h1M5 15h1M25 15h1M6 16h1M24 16h1M7 17h1M23 17h1M5 18h1M8 18h2M21 18h2M6 19h1M10 19h1M20 19h1M4 20h1M7 20h1M10 20h1M20 20h1M8 21h2M20 21h1M5 22h1M21 22h1M6 23h1M10 23h1M21 23h1M7 24h2M11 24h1M21 24h1M10 25h1M22 25h1" />
<!-- main bakcground pink-->
<path stroke="#da7b78" d="M10 4h11M5 5h2M11 5h9M4 6h3M12 6h1M18 6h1M24 6h2M4 7h3M25 7h2M3 8h3M3 9h2M3 10h2M26 10h1M3 11h2M26 11h1M3 12h2M26 12h1M3 13h2M26 13h1M3 14h2M26 14h1M3 15h2M26 15h1M3 16h2M26 16h1M3 17h3M25 17h2M3 18h1M6 18h2M24 18h3M3 19h1M7 19h3M22 19h5M3 20h1M8 20h2M21 20h6M3 21h1M21 21h6M3 22h2M22 22h5M4 23h2M22 23h5M4 24h2M10 24h1M22 24h4M5 25h5M23 25h2M6 26h4M22 26h1" />

<path stroke="#d9c6bf" d="M8 5h1M22 5h1M22 6h1M10 7h1M16 7h2M9 8h1M11 8h2M8 9h2M23 9h1M7 10h2M23 10h1M7 11h2M23 11h1M7 12h2M23 12h1M8 13h1M23 13h1M8 14h2M23 14h1M9 15h2M22 15h1M9 16h3M21 16h1M10 17h3M19 17h3M11 18h3M18 18h3M5 19h1M13 19h1M18 19h1M6 20h1M12 20h2M18 20h1M6 21h1M12 21h2M18 21h1M7 22h7M18 22h2M13 23h1M19 23h1M13 24h7" />
<path stroke="#c3c5cc" d="M9 5h1M21 5h1M8 6h1M10 6h1M20 6h1M8 7h1M11 7h1M13 7h3M19 7h1M22 7h1M8 8h1M23 8h1M7 9h1M6 12h1M24 12h1M7 13h1M7 15h2M23 15h1M8 16h1M22 16h1M9 17h1M10 18h1M12 19h1M5 21h1M10 21h2M19 21h1M12 23h1M16 25h3" />
<path stroke="#e7e5da" d="M9 6h1M21 6h1M9 7h1M20 7h1M10 8h1M13 8h8M22 8h1M10 9h5M22 9h1M9 10h5M22 10h1M9 11h2M22 11h1M9 12h3M22 12h1M9 13h3M22 13h1M10 14h3M21 14h2M11 15h3M20 15h2M12 16h3M19 16h2M13 17h2M18 17h1M14 18h1M17 18h1M14 19h2M17 19h1M14 20h2M17 20h1M14 21h4M14 22h4M14 23h5" />
<path stroke="#ffffff" d="M28 7h1M28 8h1M28 9h1" />
<path stroke="#9c9fac" d="M7 8h1M6 9h1M6 10h1M6 14h1M24 14h1M6 15h1M24 15h1M8 17h1M22 17h1M4 19h1M11 19h1M19 19h1M11 20h1M9 23h1M11 23h1M20 24h1M11 25h2M21 25h1" />

<!-- base off white for pic replace wtih background e5e3e8-->
<path stroke="#f5ebdd" d="M15 9h1M20 9h2M14 10h5M21 10h1M11 11h11M12 12h10M12 13h10M13 14h8M14 15h6M15 16h4M15 17h3M15 18h2M16 19h1M16 20h1" />
<path stroke="#b5b7c1" d="M24 9h1M24 10h1M6 11h1M24 11h1M6 13h1M24 13h1M7 14h1M7 16h1M23 16h1M4 18h1M5 20h1M7 21h1M6 22h1M8 23h1M12 24h1M13 25h3M19 25h2" />
<path stroke="#b8b8b8" d="M1 10h1M1 14h1M1 15h1M28 15h1M1 16h1M28 16h1M28 17h1M1 18h1M28 18h1M19 28h3" />
<path stroke="#a0716f" d="M5 16h1M25 16h1M6 17h1M24 17h1M23 18h1M21 19h1M4 21h1M6 24h1M9 24h1M10 26h12" />
<path stroke="#a8abb7" d="M19 20h1M20 22h1M20 23h1" />
<path stroke="#8f8f8f" d="M1 22h1M1 23h1M28 23h1" />
<path stroke="#a3a6b2" d="M7 23h1" />
</svg>
